src/img/Checkbox.svg

<svg fill="none" height="18" viewBox="0 0 18 18" width="18" xmlns="http://www.w3.org/2000/svg"><path clip-rule="evenodd" d="m2 0h14c1.11 0 2 .9 2 2v14c0 1.1-.89 2-2 2h-14c-1.11 0-2-.9-2-2v-14c0-1.1.89-2 2-2zm0 9 5 5 9-9-1.41-1.42-7.59 7.59-3.59-3.58z" fill="#7a11ff" fill-rule="evenodd"/></svg>

<svg width="18" height="18" viewBox="0 0 18 18" fill="none" xmlns="http://www.w3.org/2000/svg">
<path fill-rule="evenodd" clip-rule="evenodd" d="M2 0H16C17.11 0 18 0.9 18 2V16C18 17.1 17.11 18 16 18H2C0.89 18 0 17.1 0 16V2C0 0.9 0.89 0 2 0ZM2 9L7 14L16 5L14.59 3.58L7 11.17L3.41 7.59L2 9Z" fill="#7A11FF"/>
</svg>
